assets/vectors/icons/cat_icon.svg

<?xml version="1.0" encoding="UTF-8" standalone="no"?>
<svg
   width="95.769287"
   height="81.260269"
   viewBox="0 0 399.0387 338.58445"
   version="1.1"
   id="svg856"
   sodipodi:docname="Cat_edited.svg"
   inkscape:version="1.1.2 (0a00cf5339, 2022-02-04, custom)"
   xmlns:inkscape="http://www.inkscape.org/namespaces/inkscape"
   xmlns:sodipodi="http://sodipodi.sourceforge.net/DTD/sodipodi-0.dtd"
   xmlns="http://www.w3.org/2000/svg"
   xmlns:svg="http://www.w3.org/2000/svg">
  <defs
     id="defs860" />
  <sodipodi:namedview
     id="namedview858"
     pagecolor="#505050"
     bordercolor="#eeeeee"
     borderopacity="1"
     inkscape:pageshadow="0"
     inkscape:pageopacity="0"
     inkscape:pagecheckerboard="0"
     showgrid="false"
     inkscape:zoom="8.2916667"
     inkscape:cx="59.155779"
     inkscape:cy="32.321608"
     inkscape:window-width="2560"
     inkscape:window-height="1377"
     inkscape:window-x="-8"
     inkscape:window-y="-8"
     inkscape:window-maximized="1"
     inkscape:current-layer="svg856" />
  <g
     stroke-linecap="round"
     id="Layer_1_2"
     transform="translate(-153.14515,-85.111945)">
    <path
       d="m 255.28,149.18 c 0,0 -3.34,-0.9 -3.34,-0.9"
       fill="none"
       stroke="#000000"
       stroke-width="9"
       stroke-opacity="1"
       stroke-linejoin="round"
       id="path843" />
    <path
       d="m 185.37,208.86 c -4.29,6.92 -9.02,15.86 -12.49,23.83 -3.11,7.32 -7.15,19.48 -9.15,25.69 -2.27,7.54 -5.5,22.83 -5.96,27.43 -0.49,5.11 0.97,17.84 3.21,25.3 2.08,6.83 7.08,17.99 10.94,24.44 3.21,5.24 10.27,14.54 15.01,19.63 4.72,5.05 16.51,15.29 22.16,19.32 6.67,4.58 22.32,15.17 25.39,16.99 2.74,1.62 15.11,8.17 21.64,10.99 6.06,2.47 18.66,7.06 25.1,8.98 7.56,2.16 15.12,3.77 25.35,4.97 7.99,0.84 24.5,2.46 31.56,2.73 12.12,0.35 43.3,-2.1 55.73,-3.99 7.76,-1.3 20.68,-3.58 27.86,-5.44 6.05,-1.7 17.87,-5.28 24.14,-7.93 6.8,-2.99 24.07,-10.7 27.4,-12.42 5.07,-2.65 12.82,-8.39 21.76,-15.66 8.74,-7.24 13.46,-11.74 18.6,-18.03 3.77,-4.69 9.84,-14.13 13.02,-20.3 3.16,-6.26 8.58,-19.25 10.35,-25.01 2.26,-7.86 7.15,-25.53 7.98,-29.37 1.51,-7.08 2.57,-16.65 2.71,-23 0.09,-6.74 -1.68,-21.76 -3.46,-29.04 -1.94,-7.83 -6.54,-19.15 -10.02,-25.45 -2.68,-4.64 -10.37,-14.01 -14.04,-18.43"
       fill="none"
       stroke="#000000"
       stroke-width="9"
       stroke-opacity="1"
       stroke-linejoin="round"
       id="path845" />
    <path
       d="m 420.79,135.52 c -7.43,-0.82 -24.92,-2.51 -29.06,-2.64 -4.85,-0.14 -24.01,0.13 -31.9,0.3 -8.21,0.28 -79.72,7.93 -87.21,8.83 -8.28,1.09 -14.14,3.01 -19.22,5.98"
       fill="none"
       stroke="#000000"
       stroke-width="9"
       stroke-opacity="1"
       stroke-linejoin="round"
       id="path847" />
    <path
       d="m 254.45,144.96 c -2.25,2.02 -2.75,2.57 -2.77,2.5 -0.06,-0.19 -12.13,-17.31 -16.33,-23.5 -3.74,-5.73 -13.05,-20.98 -15.74,-24.84 -5.99,-8.39 -7.75,-9.54 -8.21,-9.49 -1.52,7.23 -12.08,44.13 -16.64,59.99 -2.42,8.93 -4.53,20.96 -5.3,27 -0.83,6.7 -1.68,28.08 -1.85,29.14 0,0 0.93,-3.28 0.93,-3.28"
       fill="none"
       stroke="#000000"
       stroke-width="9"
       stroke-opacity="1"
       stroke-linejoin="round"
       id="path849" />
    <path
       d="m 473.35,127.36 c 5,-4.28 17.24,-14.76 24.49,-20.96 9.58,-8.07 18.09,-14.78 22.13,-16.59 0.99,4.55 2.45,18.83 2.97,29.86 0.2,7.26 0.48,20.58 -0.22,28.13 -2.43,23.49 -2.76,32.14 -3.12,34.36 0.33,-0.6 0.55,-1.01 0.68,-1.24 0.13,-0.22 0.34,-0.58 0.63,-1.06"
       fill="none"
       stroke="#000000"
       stroke-width="9"
       stroke-opacity="1"
       stroke-linejoin="round"
       id="path851" />
    <path
       d="m 470.55,172.56 c -0.41,0.02 -3.02,-0.03 -3.6,0.11 -1.68,0.42 -5.83,4.88 -7.56,8.2 -1.73,3.36 -2.38,6.3 -2.58,9.14 -0.07,1.35 0.33,4.28 0.92,5.9 0.67,1.71 3.25,4.67 4.83,5.5 2.91,1.45 8.09,1.24 9.78,0.71 1.93,-0.63 5.27,-2.7 7.05,-4.29 2.02,-1.88 5.26,-7.36 5.5,-10.69 0.13,-2.65 -1.27,-7.7 -2.99,-9.72 -1.77,-1.98 -5.83,-4.3 -7.79,-4.63 -3.62,-0.57 -7.59,1.14 -7.55,1.37 0.07,0.64 2.94,-2.6 4.02,-5.3 1.17,-3.07 2.63,-9.66 2.75,-13.71 0.12,-5.07 -2.88,-17.77 -5.38,-23.53 -1.22,-2.77 -4.39,-8.49 -5.56,-10.05 -2.63,-3.46 -7.62,-7.37 -10.84,-8.54 -3.42,-1.16 -9.41,-0.65 -13.17,0.83 -1.74,0.71 -5.63,3.89 -6.91,5.29 -1.73,1.92 -5.09,7.2 -6.35,10.05 -1.31,3.05 -2.77,9.41 -2.82,12.63 -0.02,3.61 1.42,9.49 3.09,13.16 1.26,2.68 4.84,6.8 8.33,10.01 4.82,4.37 17.19,11.78 19.93,12.21 1.13,0.17 3.38,0.16 3.32,0.15 -2.07,1.14 -9.27,7.27 -11.07,9.04 -2.29,2.27 -5.99,7.36 -7.68,10.26 -2.02,3.51 -4.38,8.82 -5.48,12.33 -0.94,3.05 -2.07,9.38 -2.25,11.88 -0.32,5.01 1.16,11.05 3.24,14.5 0.99,1.57 4.61,4.69 5.85,5.45 1.58,0.94 5.94,2.31 8.14,2.52 2.44,0.22 7.34,-0.47 9.5,-1.34 1.53,-0.64 5.99,-3.35 7.64,-5.05 1.56,-1.63 5.81,-7.18 7.09,-9.75 1.07,-2.2 3.23,-8.3 3.43,-11.47 0.08,-1.38 -0.34,-8.9 -0.84,-12.64 0.01,1.38 2.66,7.41 4.04,9.3 1.76,2.39 7.71,7.62 9.29,8.76 2.43,1.71 7.85,3.8 10.13,4.21 2.68,0.45 8.28,-0.11 11.11,-1.07 2.69,-0.94 7.18,-3.71 9.31,-5.64 1.96,-1.81 4.77,-5.5 5.94,-7.77 1.15,-2.26 2.52,-6.71 2.68,-8.56 0.16,-2.26 -0.13,-5.55 -0.75,-7.46 -1.18,-3.43 -6.05,-9.15 -9.02,-11.39 -2.63,-1.94 -9.41,-4.64 -13.35,-5.64 -3.66,-0.89 -9.06,-1.5 -10.93,-1.3 -1.92,0.22 -3.34,0.81 -4.07,1.55 0.05,0.7 0,0.88 0.02,0.87 0.25,-0.18 6.92,-4.35 10.08,-7.01 3.36,-2.87 8.63,-8.08 10.79,-10.79 1.36,-1.73 5.58,-8.04 6.56,-10.13 0.57,-1.24 2.25,-7.2 2.28,-9.63 0.01,-2.67 -1.2,-8.25 -2.38,-10.79 -1.18,-2.48 -4.8,-7.19 -6.85,-9.14 -2.1,-1.95 -6.59,-4.49 -9.1,-5.06 -2.66,-0.57 -8.73,0.07 -12.12,1.19 -6.49,2.23 -13.48,7.87 -15.97,10.74 1.03,-0.35 1.77,-0.63 2.23,-0.83 0.47,-0.21 1.29,-0.63 2.48,-1.27"
       fill="none"
       stroke="#000000"
       stroke-width="9"
       stroke-opacity="1"
       stroke-linejoin="round"
       id="path853" />
  </g>
</svg>

<?xml version="1.0" encoding="UTF-8" standalone="no"?>
<!DOCTYPE svg PUBLIC "-//W3C//DTD SVG 1.1//EN" "http://www.w3.org/Graphics/SVG/1.1/DTD/svg11.dtd">
<svg width="192.00" height="144.00" viewBox="0.00 0.00 800.00 600.00" xmlns="http://www.w3.org/2000/svg" xmlns:xlink="http://www.w3.org/1999/xlink">
<g stroke-linecap="round" id="Layer_1_2">
<path d="M255.28,149.18 C255.28,149.18 251.94,148.28 251.94,148.28" fill="none" stroke="rgb(0, 0, 0)" stroke-width="9.00" stroke-opacity="1.00" stroke-linejoin="round"/>
<path d="M185.37,208.86 C181.08,215.78 176.35,224.72 172.88,232.69 C169.77,240.01 165.73,252.17 163.73,258.38 C161.46,265.92 158.23,281.21 157.77,285.81 C157.28,290.92 158.74,303.65 160.98,311.11 C163.06,317.94 168.06,329.10 171.92,335.55 C175.13,340.79 182.19,350.09 186.93,355.18 C191.65,360.23 203.44,370.47 209.09,374.50 C215.76,379.08 231.41,389.67 234.48,391.49 C237.22,393.11 249.59,399.66 256.12,402.48 C262.18,404.95 274.78,409.54 281.22,411.46 C288.78,413.62 296.34,415.23 306.57,416.43 C314.56,417.27 331.07,418.89 338.13,419.16 C350.25,419.51 381.43,417.06 393.86,415.17 C401.62,413.87 414.54,411.59 421.72,409.73 C427.77,408.03 439.59,404.45 445.86,401.80 C452.66,398.81 469.93,391.10 473.26,389.38 C478.33,386.73 486.08,380.99 495.02,373.72 C503.76,366.48 508.48,361.98 513.62,355.69 C517.39,351.00 523.46,341.56 526.64,335.39 C529.80,329.13 535.22,316.14 536.99,310.38 C539.25,302.52 544.14,284.85 544.97,281.01 C546.48,273.93 547.54,264.36 547.68,258.01 C547.77,251.27 546.00,236.25 544.22,228.97 C542.28,221.14 537.68,209.82 534.20,203.52 C531.52,198.88 523.83,189.51 520.16,185.09" fill="none" stroke="rgb(0, 0, 0)" stroke-width="9.00" stroke-opacity="1.00" stroke-linejoin="round"/>
<path d="M420.79,135.52 C413.36,134.70 395.87,133.01 391.73,132.88 C386.88,132.74 367.72,133.01 359.83,133.18 C351.62,133.46 280.11,141.11 272.62,142.01 C264.34,143.10 258.48,145.02 253.40,147.99" fill="none" stroke="rgb(0, 0, 0)" stroke-width="9.00" stroke-opacity="1.00" stroke-linejoin="round"/>
<path d="M254.45,144.96 C252.20,146.98 251.70,147.53 251.68,147.46 C251.62,147.27 239.55,130.15 235.35,123.96 C231.61,118.23 222.30,102.98 219.61,99.12 C213.62,90.73 211.86,89.58 211.40,89.63 C209.88,96.86 199.32,133.76 194.76,149.62 C192.34,158.55 190.23,170.58 189.46,176.62 C188.63,183.32 187.78,204.70 187.61,205.76 C187.61,205.76 188.54,202.48 188.54,202.48" fill="none" stroke="rgb(0, 0, 0)" stroke-width="9.00" stroke-opacity="1.00" stroke-linejoin="round"/>
<path d="M473.35,127.36 C478.35,123.08 490.59,112.60 497.84,106.40 C507.42,98.33 515.93,91.62 519.97,89.81 C520.96,94.36 522.42,108.64 522.94,119.67 C523.14,126.93 523.42,140.25 522.72,147.80 C520.29,171.29 519.96,179.94 519.60,182.16 C519.93,181.56 520.15,181.15 520.28,180.92 C520.41,180.70 520.62,180.34 520.91,179.86" fill="none" stroke="rgb(0, 0, 0)" stroke-width="9.00" stroke-opacity="1.00" stroke-linejoin="round"/>
<path d="M470.55,172.56 C470.14,172.58 467.53,172.53 466.95,172.67 C465.27,173.09 461.12,177.55 459.39,180.87 C457.66,184.23 457.01,187.17 456.81,190.01 C456.74,191.36 457.14,194.29 457.73,195.91 C458.40,197.62 460.98,200.58 462.56,201.41 C465.47,202.86 470.65,202.65 472.34,202.12 C474.27,201.49 477.61,199.42 479.39,197.83 C481.41,195.95 484.65,190.47 484.89,187.14 C485.02,184.49 483.62,179.44 481.90,177.42 C480.13,175.44 476.07,173.12 474.11,172.79 C470.49,172.22 466.52,173.93 466.56,174.16 C466.63,174.80 469.50,171.56 470.58,168.86 C471.75,165.79 473.21,159.20 473.33,155.15 C473.45,150.08 470.45,137.38 467.95,131.62 C466.73,128.85 463.56,123.13 462.39,121.57 C459.76,118.11 454.77,114.20 451.55,113.03 C448.13,111.87 442.14,112.38 438.38,113.86 C436.64,114.57 432.75,117.75 431.47,119.15 C429.74,121.07 426.38,126.35 425.12,129.20 C423.81,132.25 422.35,138.61 422.30,141.83 C422.28,145.44 423.72,151.32 425.39,154.99 C426.65,157.67 430.23,161.79 433.72,165.00 C438.54,169.37 450.91,176.78 453.65,177.21 C454.78,177.38 457.03,177.37 456.97,177.36 C454.90,178.50 447.70,184.63 445.90,186.40 C443.61,188.67 439.91,193.76 438.22,196.66 C436.20,200.17 433.84,205.48 432.74,208.99 C431.80,212.04 430.67,218.37 430.49,220.87 C430.17,225.88 431.65,231.92 433.73,235.37 C434.72,236.94 438.34,240.06 439.58,240.82 C441.16,241.76 445.52,243.13 447.72,243.34 C450.16,243.56 455.06,242.87 457.22,242.00 C458.75,241.36 463.21,238.65 464.86,236.95 C466.42,235.32 470.67,229.77 471.95,227.20 C473.02,225.00 475.18,218.90 475.38,215.73 C475.46,214.35 475.04,206.83 474.54,203.09 C474.55,204.47 477.20,210.50 478.58,212.39 C480.34,214.78 486.29,220.01 487.87,221.15 C490.30,222.86 495.72,224.95 498.00,225.36 C500.68,225.81 506.28,225.25 509.11,224.29 C511.80,223.35 516.29,220.58 518.42,218.65 C520.38,216.84 523.19,213.15 524.36,210.88 C525.51,208.62 526.88,204.17 527.04,202.32 C527.20,200.06 526.91,196.77 526.29,194.86 C525.11,191.43 520.24,185.71 517.27,183.47 C514.64,181.53 507.86,178.83 503.92,177.83 C500.26,176.94 494.86,176.33 492.99,176.53 C491.07,176.75 489.65,177.34 488.92,178.08 C488.97,178.78 488.92,178.96 488.94,178.95 C489.19,178.77 495.86,174.60 499.02,171.94 C502.38,169.07 507.65,163.86 509.81,161.15 C511.17,159.42 515.39,153.11 516.37,151.02 C516.94,149.78 518.62,143.82 518.65,141.39 C518.66,138.72 517.45,133.14 516.27,130.60 C515.09,128.12 511.47,123.41 509.42,121.46 C507.32,119.51 502.83,116.97 500.32,116.40 C497.66,115.83 491.59,116.47 488.20,117.59 C481.71,119.82 474.72,125.46 472.23,128.33 C473.26,127.98 474.00,127.70 474.46,127.50 C474.93,127.29 475.75,126.87 476.94,126.23" fill="none" stroke="rgb(0, 0, 0)" stroke-width="9.00" stroke-opacity="1.00" stroke-linejoin="round"/>
</g>
</svg>
